X: 23563
T: Light Foot
R: reel
M: 4/4
K: Edorian
|:EBdB cABd|EBdB edfe|EBge fdfe|1 =cdBG ABGF:|2 =cdBG ABdf||
|:gfeB GBEB|gfed fdga|bagb fbef|1 gfeB GBEB:|2 gfeB GBEF||
|:EFGE AFBA|EFGB dBef|EFGB efga-|1 abeB fgBG:|2 abeB fgBd||

